web/packages/design/src/ResourceIcon/assets/twilio.svg

<svg width="72" height="72" viewBox="0 0 72 72" fill="none" xmlns="http://www.w3.org/2000/svg">
<g clip-path="url(#clip0_16966_11985)">
<path d="M27 51.9251C30.8236 51.9251 33.923 48.8255 33.923 45.002C33.923 41.1784 30.8236 38.079 27 38.079C23.1764 38.079 20.0768 41.1784 20.0768 45.002C20.0768 48.8255 23.1764 51.9251 27 51.9251ZM27 33.9251C30.8236 33.9251 33.923 30.8255 33.923 27.002C33.923 23.1784 30.8236 20.0788 27 20.0788C23.1764 20.0788 20.0768 23.1784 20.0768 27.002C20.0768 30.8255 23.1764 33.9251 27 33.9251ZM45 51.9251C48.8236 51.9251 51.9232 48.8255 51.9232 45.002C51.9232 41.1784 48.8236 38.079 45 38.079C41.1764 38.079 38.0768 41.1784 38.0768 45.002C38.0768 48.8255 41.1764 51.9251 45 51.9251ZM45 33.9251C48.8236 33.9251 51.9232 30.8255 51.9232 27.002C51.9232 23.1784 48.8236 20.0788 45 20.0788C41.1764 20.0788 38.0768 23.1784 38.0768 27.002C38.0768 30.8255 41.1764 33.9251 45 33.9251ZM36 0.00195312C55.4999 0.00195312 72 16.502 72 36.002C72 55.5019 55.4999 72.002 36 72.002C16.5 72.002 0 55.5019 0 36.002C0 16.5022 16.5001 0.00195312 36 0.00195312ZM36 9.69425C21.5122 9.69425 9.69232 21.1048 9.69232 35.5187C9.69232 49.9325 21.5122 62.3097 36 62.3097C50.4878 62.3097 62.3077 49.9325 62.3077 35.5187C62.3077 21.1048 50.4878 9.69425 36 9.69425Z" fill="#F22F46"/>
</g>
<defs>
<clipPath id="clip0_16966_11985">
<rect width="72" height="72" fill="white" transform="translate(0 0.00195312)"/>
</clipPath>
</defs>
</svg>

<svg xmlns="http://www.w3.org/2000/svg" width="72" height="72" fill="none" viewBox="0 0 72 72"><g clip-path="url(#a)"><path fill="#f22f46" d="M27 51.925a6.923 6.923 0 1 0 0-13.846 6.923 6.923 0 0 0 0 13.846m0-18a6.923 6.923 0 1 0 0-13.846 6.923 6.923 0 0 0 0 13.846m18 18a6.923 6.923 0 1 0 0-13.846 6.923 6.923 0 0 0 0 13.846m0-18a6.923 6.923 0 1 0 0-13.846 6.923 6.923 0 0 0 0 13.846M36 .002c19.5 0 36 16.5 36 36s-16.5 36-36 36-36-16.5-36-36 16.5-36 36-36m0 9.692c-14.488 0-26.308 11.41-26.308 25.825S21.512 62.309 36 62.309s26.308-12.376 26.308-26.79S50.488 9.694 36 9.694"/></g><defs><clipPath id="a"><path fill="#fff" d="M0 .002h72v72H0z"/></clipPath></defs></svg>
